!!!COM: Martinů, Bohuslav (Jan)
!!!OTL: [T508_Mau-w54p1m1-8]
**kern	**dynam	**kern	**dynam	**kern	**dynam
*grp:A	*grp:A	*grp:A	*grp:A	*grp:B	*grp:B
*part3	*part3	*part2	*part2	*part1	*part1
*staff3	*	*staff2	*	*staff1	*
*I"Bassoon	*	*I"Clarinet in C	*	*I"Oboe	*
*I'Bsn.	*	*I'Cl.	*	*I'Ob.	*
*clefF4	*	*clefG2	*	*clefG2	*
*k[]	*	*k[]	*	*k[]	*
*C:	*	*C:	*	*C:	*
*M3/8	*	*M3/8	*	*M3/8	*
=1	=1	=1	=1	=1	=1
!!LO:TX:a:B:t=Allegro moderato
!	!	!	!	!LO:TX:t=P:problem:cross-bar beaming	!
8r	.	8%3r	.	(16b-XLL/	p
.	.	.	.	16fJ	.
8BB-X'>L/	p	.	.	8b-'J)/	.
8F'>J	.	.	.	(16b-LL/	<
.	.	.	.	16fJ	[[
=2	=2	=2	=2	=2	=2
!LO:TX:t=P:problem:cross-bar beaming	!	!	!	!	!
(16F#XLL	<	8%3r	.	16b-XL/	>
16GJ)	.	.	.	16eJ	.
8A-XJ	[	.	.	8b-'J)/	]
(16EnLL	.	.	.	(24b-LL/	.
.	.	.	.	24a	.
16G#XJ	.	.	.	.	.
.	.	.	.	24gJ	.
=3	=3	=3	=3	=3	=3
!	!	!LO:TX:t=P:problem:cross-bar beaming	!	!	!
16GL	<	(16d-XLL/	p	8b-X'J)/	.
16AJ	.	16fJ	.	.	.
16B-XL	.	16a-XL	.	(>16b-LL/	.
16cJ	.	16b-XJ	.	16g-	<
8c#X'J)	[	16cc#XL	<	16b-/	.
.	.	16eeJ	.	16fJ	[ >
=4	=4	=4	=4	=4	=4
!	!LO:DY:t=poco %s	!	!	!	!
(16dLL	mf	8ff'J)/	[	8b-'XJ)/	]
16BnJ	.	.	.	.	.
!	!	!	!LO:DY:t=poco %s	!	!
16c#XL	.	(16ffLL	mf	(<16b-LL/	.
!	!	!	!	!	!LO:HP:a
16G#XJJ	<	16ddJ	.	16e-XJ	<
16dLL	.	8ff'J)	.	16b-L	.
16BJ	[[	.	.	16ccJJ	[[
!!linebreak:original
=5	=5	=5	=5	=5	=5
8c#X'J)	.	(16ffLL	.	16gLL	.
.	.	16ccJ	.	16b-XJ	.
(16dLL	.	16ffL	.	8f'J)	<
16B	.	16ccJ	<	.	.
16c#X	.	8ff'J)	.	(<16b-LL/	.
16G#XJJ	<	.	[[	16ccJ	[[
=6	=6	=6	=6	=6	=6
16dLL	.	(16ffLL	.	8g'>J)	mf
16B-XJ	[	16ddJ	.	.	.
8cn'J)	.	8ff'J)	.	(16b-XLL	.
.	.	.	.	16bnJ	<
.	.	.	.	(<8qcc/	[
(16dLL	mf	(16ee-XLL/	mf	[8bb-X^J))	.
16GJJ	.	16b-XJ	.	.	.
=7	=7	=7	=7	=7	=7
16DLL	.	16ddL	.	8bb-]	.
16GGJJ	.	16bnJ	.	.	.
[>4EE-X)	.	16cc#XL	.	(8b-XL	<
.	.	16g#XJJ)	.	.	.
.	.	.	.	(<8qcc/	[
.	.	(16ee-XLL/	.	[8bb-XJ))	.
.	.	16b-XJ	.	.	.
=8	=8	=8	=8	=8	=8
16EE-LL]	.	16ddL	.	8bb-L]	.
(16DJ	<	16bnJ	.	.	.
16B-XL)	[	16cc#XL	<	8b-X'J	<
16D'J	>	16g#XJ	.	.	.
.	.	.	.	(<8qcc/	[
[>8EE-XJ	]	8ccn'J)/	[	[8bb-X)	.
=	=	=	=	=	=
*-	*-	*-	*-	*-	*-
!!!system-decoration: [(s1,s2,s3)]
!!!RDF**kern: > = above
!!!RDF**kern: < = below
!!!EED: Rafael Laurindo
!!!EED2: Jason Lee
!!!EEV2: 2022/02/08
